build/category/GalleryOutline.svg

<svg xmlns="http://www.w3.org/2000/svg" fill="none" viewBox="0 0 24 24" focusable="false"><path d="M0 0H24V24H0z"/><path fill="#74767B" fill-rule="evenodd" d="M6 20C5.10267 20 4.29736 19.606 3.7476 18.9816C3.28226 18.4531 3 17.7595 3 17L3 7C3 5.34315 4.34315 4 6 4L18 4C19.6569 4 21 5.34315 21 7L21 17C21 18.6569 19.6569 20 18 20L6 20ZM18 5.3L6 5.3C5.06112 5.3 4.3 6.06112 4.3 7L4.3 17C4.3 17.2813 4.36831 17.5466 4.48924 17.7803L6.4963 14.5291C7.41393 13.0426 9.57505 13.0414 10.4943 14.5269L10.9604 15.2801L13.503 11.1786C14.4214 9.6971 16.5763 9.69595 17.4963 11.1764L19.7 14.7227L19.7 7C19.7 6.06112 18.9389 5.3 18 5.3ZM8.5 12C9.88071 12 11 10.8807 11 9.5C11 8.11929 9.88071 7 8.5 7C7.11929 7 6 8.11929 6 9.5C6 10.8807 7.11929 12 8.5 12ZM8.5 10.7C9.16274 10.7 9.7 10.1627 9.7 9.5C9.7 8.83726 9.16274 8.3 8.5 8.3C7.83726 8.3 7.3 8.83726 7.3 9.5C7.3 10.1627 7.83726 10.7 8.5 10.7ZM14.6079 11.8635L10.3699 18.7L18 18.7C18.8808 18.7 19.6052 18.0301 19.6914 17.1719L16.3922 11.8626C15.9811 11.2011 15.0182 11.2016 14.6079 11.8635ZM6 18.7L8.8402 18.7L10.1952 16.5141L9.38883 15.211C8.97811 14.5473 8.0125 14.5478 7.60249 15.212L5.49609 18.6241C5.65532 18.6734 5.82455 18.7 6 18.7Z"/></svg>

<svg xmlns="http://www.w3.org/2000/svg" fill="none" viewBox="0 0 24 24" focusable="false"><path fill="#74767B" fill-rule="evenodd" d="M6 20c-.9 0-1.71-.4-2.26-1.02C3.28 18.45 3 17.75 3 17V7c0-1.66 1.34-3 3-3h12c1.65 0 3 1.34 3 3v10c0 1.65-1.35 3-3 3zM18 5.29H6c-.94 0-1.7.77-1.7 1.71v10q0 .42.18.78l2.01-3.26c.92-1.48 3.08-1.48 4 0l.47.76 2.54-4.11c.92-1.48 3.07-1.48 3.99 0l2.21 3.55V7c0-.94-.77-1.71-1.7-1.71M11 9.5a2.5 2.5 0 0 1-5 0C6 8.11 7.11 7 8.5 7 9.88 7 11 8.11 11 9.5m-1.31 0a1.195 1.195 0 1 1-2.39 0c0-.67.53-1.21 1.2-1.21.66 0 1.19.54 1.19 1.21m4.91 2.36-4.24 6.84H18c.88 0 1.6-.67 1.69-1.53l-3.3-5.31c-.41-.66-1.38-.66-1.79 0M6 18.7h2.84l1.35-2.19-.81-1.3a1.04 1.04 0 0 0-1.78 0l-2.11 3.41c.16.05.33.08.51.08"/></svg>
